icons/numpy-dark.svg

<svg width="256" height="256" viewBox="0 0 256 256" fill="none" xmlns="http://www.w3.org/2000/svg">
<path d="M196 0H60C26.8629 0 0 26.8629 0 60V196C0 229.137 26.8629 256 60 256H196C229.137 256 256 229.137 256 196V60C256 26.8629 229.137 0 196 0Z" fill="#282828"/>
<path d="M116.372 78.8561L88.7079 64.8921L58.3479 80.0441L86.7599 94.3121L116.372 78.8561Z" fill="#4DABCF"/>
<path d="M129.052 85.2563L158.056 99.8963L127.964 115.008L99.5078 100.716L129.052 85.2563Z" fill="#4DABCF"/>
<path d="M167.788 65.104L197.584 80.044L170.936 93.428L141.872 78.768L167.788 65.104Z" fill="#4DABCF"/>
<path d="M154.964 58.6682L128.14 45.2202L101.604 58.4602L129.244 72.4002L154.964 58.6682Z" fill="#4DABCF"/>
<path d="M133.992 174.176V210.78L166.488 194.564L166.452 157.944L133.992 174.176Z" fill="#4DABCF"/>
<path d="M166.44 145.164L166.404 108.928L133.992 125.04V161.288L166.44 145.164Z" fill="#4DABCF"/>
<path d="M205.452 138.372V175.12L177.736 188.952L177.716 152.372L205.452 138.372Z" fill="#4DABCF"/>
<path d="M205.452 125.524V89.5161L177.684 103.32L177.708 139.628L205.452 125.524Z" fill="#4DABCF"/>
<path d="M122.52 125.04L100.632 114.036V161.6C100.632 161.6 73.8641 104.644 71.3841 99.5282C71.0641 98.8682 69.7481 98.1442 69.4121 97.9682C64.6121 95.4482 50.5481 88.3242 50.5481 88.3242V172.356L70.0041 182.756V138.832C70.0041 138.832 96.4881 189.724 96.7561 190.28C97.0241 190.836 99.6841 196.2 102.524 198.084C106.308 200.588 122.524 210.34 122.524 210.34L122.52 125.04Z" fill="#4D77CF"/>
</svg>

<svg xmlns="http://www.w3.org/2000/svg" width="256" height="256" fill="none"><path fill="#282828" d="M196 0H60C26.863 0 0 26.863 0 60v136c0 33.137 26.863 60 60 60h136c33.137 0 60-26.863 60-60V60c0-33.137-26.863-60-60-60"/><path fill="#4DABCF" d="M116.372 78.856 88.708 64.892l-30.36 15.152L86.76 94.312zm12.68 6.4 29.004 14.64-30.092 15.112-28.456-14.292zm38.736-20.152 29.796 14.94-26.648 13.384-29.064-14.66zm-12.824-6.436L128.14 45.22l-26.536 13.24 27.64 13.94zm-20.972 115.508v36.604l32.496-16.216-.036-36.62zm32.448-29.012-.036-36.236-32.412 16.112v36.248zm39.012-6.792v36.748l-27.716 13.832-.02-36.58zm0-12.848V89.516l-27.768 13.804.024 36.308z"/><path fill="#4D77CF" d="m122.52 125.04-21.888-11.004V161.6s-26.768-56.956-29.248-62.072c-.32-.66-1.636-1.384-1.972-1.56-4.8-2.52-18.864-9.644-18.864-9.644v84.032l19.456 10.4v-43.924s26.484 50.892 26.752 51.448 2.928 5.92 5.768 7.804c3.784 2.504 20 12.256 20 12.256z"/></svg>
